!!!COM: Palestrina, Giovanni Perluigi da
!!!OPR: Missa O magnum mysterium
!!!OMD: Credo
!!!OTL: First Section
**kern	**kern	**kern	**kern	**kern
*Ibass	*Itenor	*Icalto	*Icalto	*Icant
!Bassus	!Tenor	!Altus 2	!Altus 1	!Cantus
*clefF4	*clefGv2	*clefG2	*clefG2	*clefG2
*k[]	*k[]	*k[]	*k[]	*k[]
*E:phr	*E:phr	*E:phr	*E:phr	*E:phr
*M4/2	*M4/2	*M4/2	*M4/2	*M4/2
=1	=1	=1	=1	=1
0r	0E	[0e	0B	0g#
=2	=2	=2	=2	=2
0AA	0A	0e]	0c#	0a
=3	=3	=3	=3	=3
0D	1r	0f#	0d	0a
.	1D	.	.	.
=4	=4	=4	=4	=4
0r	2G	1g	1d	1b
.	2G	.	.	.
.	2F	1a	2f	1cc
.	2F	.	2f	.
=5	=5	=5	=5	=5
0r	4D	2.a	2.f	2dd
.	4E	.	.	.
.	4F	.	.	2.cc
.	4G	8g	8e	.
.	.	8f	8d	.
.	4A	2e	4c	.
.	4B	.	4d	4b
.	4c	2c	[2e	[2a
.	4A	.	.	.
=6	=6	=6	=6	=6
1r	1B	1d	4e]	4a]
.	.	.	4d	8g
.	.	.	.	8f#
.	.	.	2d	2g#
1AA	1A	2e	2c#	[1a
.	.	2c#	2e	.
=7	=7	=7	=7	=7
2AA	2r	2c#	2e	0a]
2AA	2A	2c#	2e	.
1D	2A	1d	1f#	.
.	2A	.	.	.
=8	=8	=8	=8	=8
2C	1c	1e	1g	2r
2C	.	.	.	2e
4AA	1c	1r	2a	2e
4BB	.	.	.	.
4C	.	.	[2g	2e
4D	.	.	.	.
=9	=9	=9	=9	=9
4E	1B	0r	4g]	1g
4F	.	.	4f	.
4G	.	.	2.e	.
4E	.	.	.	.
1F	2.A	.	.	2a
.	.	.	8d	.
.	.	.	8c	.
.	.	.	2d	2a
.	4B	.	.	.
=10	=10	=10	=10	=10
[0E	2c	0r	[0e	4g
.	.	.	.	4f
.	1B	.	.	4e
.	.	.	.	4d
.	.	.	.	2c
.	[2A	.	.	4B
.	.	.	.	4A
=11	=11	=11	=11	=11
1E]	2A]	1r	1e]	1B
.	2G#	.	.	.
2r	[1A	1e	1c#	1A
2AA	.	.	.	.
=12	=12	=12	=12	=12
2AA	0A]	2e	2c#	2r
1D	.	1f	1d	1a
2AA	.	2e	2c	2a
=13	=13	=13	=13	=13
2AA	0r	2c	2e	1.cc
1A	.	1c	2e	.
.	.	.	2f#	.
2G	.	2d	[2g	2b
=14	=14	=14	=14	=14
1E	1r	4e	4g]	1g
.	.	4d	4f	.
.	.	4c	4e	.
.	.	4B	4d	.
2.F	2r	[1A	2c	[1a
.	[2d	.	[2f	.
4G	.	.	.	.
=15	=15	=15	=15	=15
0A	2d]	1A]	2f]	2a]
.	2c	.	2e	2a
.	2A	2r	2f	1a
.	2c	[2a	2e	.
=16	=16	=16	=16	=16
1r	2B	2a]	2d	2r
.	2B	2g	2d	1dd
2r	1A	2f	2.a	.
[2A	.	4e	.	2cc
.	.	4d	4g	.
=17	=17	=17	=17	=17
2A]	0r	2c	4e	2a
.	.	.	4f	.
2G	.	2d	2.g	2b
2E	.	1e	.	4cc
.	.	.	4f	4b
2G	.	.	[2e	4b
.	.	.	.	8a
.	.	.	.	8g
=18	=18	=18	=18	=18
2F	1r	1A	4e]	2a
.	.	.	8d	.
.	.	.	8c	.
2F	.	.	2d	2a
1E	2r	1B	1e	1g#
.	2E	.	.	.
=19	=19	=19	=19	=19
1AA	2E	1c#	1e	2r
.	1A	.	.	1a
2AA	.	2c#	2e	.
[2D	2A	[2d	[2f	2a
=20	=20	=20	=20	=20
2D]	1A	2d]	2f]	2.a
2C#	.	2e	2e	.
.	.	.	.	4a
2D	1A	2f#	2d	2a
2D	.	2f#	2d	2a
=21	=21	=21	=21	=21
1GG	1G	0g	1d	1b
[1C	2.E	.	1e	[1cc
.	4F	.	.	.
=22	=22	=22	=22	=22
1C]	1G	1e	0c	1cc]
1FF	1F	1f	.	1cc
=23	=23	=23	=23	=23
0F	2.A	0f	1c	0a
.	4B	.	.	.
.	[1c	.	2.A	.
.	.	.	4B	.
=24	=24	=24	=24	=24
0C	2c]	0e	1c	1g
.	2G	.	.	.
.	2r	.	2r	1g
.	2c	.	2e	.
=25	=25	=25	=25	=25
0r	2c	0r	2e	2g
.	2B	.	2d	2g
.	2.c	.	2.e	2.a
.	4B	.	4d	4g
=26	=26	=26	=26	=26
0r	2A	0r	2c	2f
.	2G#	.	2B	2e
.	2.A	.	2.c	4f
.	.	.	.	4e
.	.	.	.	[2e
.	4G	.	4B	.
=27	=27	=27	=27	=27
2r	2F	2r	1A	2e]
2A	2F	2A	.	2d
2A	1E	2c	2r	1e
2G#	.	2B	2e	.
=28	=28	=28	=28	=28
1.A	0r	1.c	2e	1r
.	.	.	2e	.
.	.	.	2f	2r
2G	.	2B	2e	2e
=29	=29	=29	=29	=29
2F	0r	2A	2d	2f
2E	.	2G	2c	2g
2.F	.	1A	4d	2f
.	.	.	4c	.
.	.	.	[2c	[2a
4E	.	.	.	.
=30	=30	=30	=30	=30
2D	1r	1F	2c]	2a]
2D	.	.	2B	4g
.	.	.	.	4f
[1C	2r	1G	2.c	1e
.	[2G	.	.	.
.	.	.	4d	.
=31	=31	=31	=31	=31
0C]	2G]	2.c	1e	2r
.	2G	.	.	1g
.	.	4d	.	.
.	2.c	[1e	2r	.
.	.	.	[2c	2g
.	4B	.	.	.
=32	=32	=32	=32	=32
0r	2.A	2e]	2c]	2.cc
.	.	2e	2c	.
.	4G	.	.	4b
.	2F	2f	2c	2a
.	2E	2g	2c	2g
=33	=33	=33	=33	=33
1r	1F	1a	1c	1f
2r	2C	2g	1c	2.e
[2C	[2c	[2e	.	.
.	.	.	.	4f
=34	=34	=34	=34	=34
2C]	2c]	2e]	2r	1g
2C	2c	2e	1c	.
2.F	[1A	[1f	.	1r
.	.	.	2c	.
4E	.	.	.	.
=35	=35	=35	=35	=35
0D	2A]	2f]	2.f	0r
.	2B-	2d	.	.
.	.	.	4e	.
.	1A	1f	1d	.
=36	=36	=36	=36	=36
2C#	2.A	2e	2e	1r
2D	.	2d	2f	.
.	4A	.	.	.
1AA	2A	2c	2e	2r
.	2A	2A	2c	2cc
=37	=37	=37	=37	=37
0r	2G	2B	2d	2b
.	2F	2c	2f	2a
.	1D	1d	1f	1a
=38	=38	=38	=38	=38
1r	1E	1B	1.e	4g
.	.	.	.	4f
.	.	.	.	4e
.	.	.	.	4d
1A	1r	2r	.	2c
.	.	2c	2A	2cc
=39	=39	=39	=39	=39
2G	0r	2d	2B	2b
2F	.	2f	2c	2a
2D	.	2f	2d	2a
2D	.	2f	2d	2a
=40	=40	=40	=40	=40
1E	1r	0e	1B	4g
.	.	.	.	4f
.	.	.	.	4e
.	.	.	.	4d
1r	1A	.	2r	2c
.	.	.	2c	2cc
=41	=41	=41	=41	=41
0r	2G	2r	2d	2b
.	2F	2A	2d	2a
.	1E	2c	1e	4g
.	.	.	.	4f
.	.	2B	.	4e
.	.	.	.	4d
=42	=42	=42	=42	=42
1A	2r	1e	2r	2c
.	2A	.	2c	2cc
2G	2B	1r	2d	2b
2F	2c	.	2f	2a
=43	=43	=43	=43	=43
1D	2.d	0r	1f	4b
.	.	.	.	4a
.	.	.	.	1a
.	4c	.	.	.
1E	1B	.	1e	.
.	.	.	.	2g#
=44	=44	=44	=44	=44
1AA	2A	1e	2r	1a
.	1A	.	1c	.
1r	.	2f#	.	1r
.	2B	[2g	2d	.
=45	=45	=45	=45	=45
0r	1c	2g]	1e	0r
.	.	2a	.	.
.	2B	1g	2d	.
.	[2c	.	[2e	.
=46	=46	=46	=46	=46
0r	2c]	1e	2e]	2r
.	2A	.	2c	1a
.	1d	2r	1f	.
.	.	[2f	.	2b
=47	=47	=47	=47	=47
0r	1c	2f]	1g	2cc
.	.	2e	.	2cc
.	2F	[1f	[1a	1cc
.	2F	.	.	.
=48	=48	=48	=48	=48
0r	1c	2f]	2a]	2cc
.	.	2e	2g	1cc
.	1G	1d	2.g	.
.	.	.	.	2b
.	.	.	4f	.
=49	=49	=49	=49	=49
0r	2.A	2c	1.e	2.cc
.	.	2.c	.	.
.	4B	.	.	4b
.	2c	.	.	2a
.	.	4A	.	.
.	[2d	2B-	2d	2g
=50	=50	=50	=50	=50
1r	2d]	1A	1e	1a
.	2c#	.	.	.
1D	2d	2r	1f#	1a
.	2A	[2d	.	.
=51	=51	=51	=51	=51
2D	2A	2d]	2r	0r
1G	1B	2d	2d	.
.	.	2B	2d	.
2E	2c	2G	[2g	.
=52	=52	=52	=52	=52
1D	1d	2A	2g]	0r
.	.	2B	2f	.
[1C	[1G	4c	1e	.
.	.	4B	.	.
.	.	4c	.	.
.	.	4d	.	.
=53	=53	=53	=53	=53
2C]	1G]	4e	2c	0r
.	.	4f	.	.
2E	.	1g	2c	.
1D	1A	.	2.d	.
.	.	2f#	.	.
.	.	.	4c	.
=54	=54	=54	=54	=54
2r	1G	2g	1B	2r
2E	.	2e	.	2b
2G	1r	2d	1r	2b
2A	.	2c	.	2cc
=55	=55	=55	=55	=55
1F	0r	1f	0r	1a
2C	.	2e	.	2g
2D	.	2d	.	2f
=56	=56	=56	=56	=56
1A	2r	2c	0r	2e
.	2A	2c	.	2e
1r	2G	2e	.	2g
.	2F	2f	.	2a
=57	=57	=57	=57	=57
0r	1B-	1.d	1r	2f
.	.	.	.	4e
.	.	.	.	4d
.	1A	.	2r	1e
.	.	2c	2e	.
=58	=58	=58	=58	=58
0r	0F	2.f	2d	1a
.	.	.	2c	.
.	.	4e	.	.
.	.	4d	1f	1a
.	.	4c	.	.
.	.	[2c	.	.
=59	=59	=59	=59	=59
0r	1G	4c]	2e	0g
.	.	8B	.	.
.	.	8A	.	.
.	.	2B	1d	.
.	2.E	1e	.	.
.	.	.	[2c	.
.	4F	.	.	.
=60	=60	=60	=60	=60
1r	1G	0d	2c]	1g
.	.	.	4B	.
.	.	.	4A	.
1G	1r	.	1B	1dd
=61	=61	=61	=61	=61
1C	1e	0g	1c	1cc
4GG	[1d	.	1r	1b
4AA	.	.	.	.
4BB	.	.	.	.
4C	.	.	.	.
=62	=62	=62	=62	=62
4D	2d]	1f	0r	1a
4E	.	.	.	.
2F	1c	.	.	.
1C	.	1e	.	1g
.	2B	.	.	.
=63	=63	=63	=63	=63
1D	0A	1d	0a	1f
1AA	.	1c	.	[1e
=64	=64	=64	=64	=64
2r	1E	1B	1g	1e]
2E	.	.	.	.
1F	2r	2A	1f	1a
.	2c	2F	.	.
=65	=65	=65	=65	=65
1C	1c	2G	1e	1g
.	.	2E	.	.
1D	2A	2F	1d	2f
.	2F	[2A	.	2f
=66	=66	=66	=66	=66
0AA	1A	4A]	2.c	2.e
.	.	4B	.	.
.	.	4c	.	.
.	.	4d	4B	4d
.	[1E	1e	1A	1c
=67	=67	=67	=67	=67
0E	1E]	0e	1G#	1B
.	1G#	.	2r	1b
.	.	.	[2e	.
=68	=68	=68	=68	=68
0r	1A	2r	2e]	1cc
.	.	2e	1c	.
.	1F	2a	.	1cc
.	.	2a	[2f	.
=69	=69	=69	=69	=69
0r	1c	1g	2f]	1cc
.	.	.	1e	.
.	1d	1f	.	1a
.	.	.	[2d	.
=70	=70	=70	=70	=70
1r	0A	1e	2d]	1a
.	.	.	2c#	.
1D	.	1f	2r	2r
.	.	.	2d	[2a
=71	=71	=71	=71	=71
1E	0r	1e	2c	2a]
.	.	.	2B	1g
1C	.	1g	1e	.
.	.	.	.	[2cc
=72	=72	=72	=72	=72
1G	0r	1g	1d	2cc]
.	.	.	.	1b
1A	.	1e	1c	.
.	.	.	.	[2a
=73	=73	=73	=73	=73
1E	1r	1e	1B	2a]
.	.	.	.	2g#
1r	[1A	[1c	[1e	2r
.	.	.	.	[2a
=74	=74	=74	=74	=74
0r	2A]	2c]	2e]	2a]
.	2A	2c	2e	2a
.	1E	1B	2.e	1g
.	.	.	4d	.
=75	=75	=75	=75	=75
0r	2F	2A	2c	2f
.	4D	4A	2d	1f
.	4E	4G	.	.
.	4F	4A	1c	.
.	4G	4B	.	.
.	[2A	[2c	.	4e
.	.	.	.	4d
=76	=76	=76	=76	=76
0r	2A]	4c]	1A	2c
.	.	4B	.	.
.	2F	1A	.	2d
.	1E	.	1B	1e
.	.	2G#	.	.
=77	=77	=77	=77	=77
0AA	1r	1A	2.e	0cc
.	.	.	4d	.
.	1A	1e	4c	.
.	.	.	4B	.
.	.	.	2A	.
=78	=78	=78	=78	=78
1E	1G#	1e	1B	1b
[1AA	1A	1e	2.c	2a
.	.	.	.	4a
.	.	.	4d	4g#
=79	=79	=79	=79	=79
1AA]	2.A	2.c	1e	4a
.	.	.	.	4b
.	.	.	.	2.cc
.	4G#	4B	.	.
1AA	4A	4A	2e	.
.	4B	4G#	.	4b
.	2c	2A	[2e	2a
=80	=80	=80	=80	=80
0E	2B	2B	4e]	2g#
.	.	.	4d	.
.	2A	2.e	2c	1a
.	1B	.	2B	.
.	.	4d	.	.
.	.	2B	2e	2g#
=81	=81	=81	=81	=81
[0AA	[0A	[0c#	[0e	[0a
=82	=82	=82	=82	=82
0AA]	0A]	0c#]	0e]	0a]
*-	*-	*-	*-	*-
!!!CDT: 1525/^1526/-1594/2/2
!!!OCY: Italia
!!!AGN: Mass (Parody)
!!!AST: renaissance, vocal
!!!ASW: Motet 1569 (Palestrina)
!!!PWK: Masses, Book 4
!!!RNB: Cadence finals: A,C,G,F
!!!YOR: Le Opere Complete, v. 10, p. 150
!!!YOO: Rome, Italy: Fratelli Scalera
!!!END: 1992//
!!!EED: John Miller
!!!YEC: Copyright 2000, John Miller
!!!YEN: United States of America
!!!YEM: Rights to all derivative electronic formats reserved.
!!!YEM: Refer to licensing agreement for further details.
!!!YEM: This file must be accompanied by the licensing agreement.
!!!YEM: A copy of the licensing agreement may be found at http://www.music-cog.ohio-state.edu/HumdrumDatabases/Palestrina/license.txt
!!!EMD: converted to Humdrum by Bret Aarden
